img/icons/serenity.svg

<svg width="82" height="23" viewBox="0 0 82 23" fill="none" xmlns="http://www.w3.org/2000/svg">
<path d="M4.59526 5.16674C5.25903 5.16674 5.87173 5.21643 6.48444 5.36546C7.09714 5.51448 7.70983 5.76284 8.32253 6.06089V8.54466C7.70983 8.14726 7.09713 7.84921 6.38231 7.65051C5.71855 7.40213 5.10585 7.30277 4.5442 7.30277C4.08468 7.30277 3.72726 7.40213 3.47197 7.55115C3.21668 7.70018 3.06351 7.94857 3.06351 8.24662C3.06351 8.44532 3.16563 8.59433 3.36986 8.79303C3.5741 8.99174 4.1868 9.2898 5.15691 9.73688C6.53549 10.4323 7.50559 11.0284 8.06724 11.6245C8.62888 12.2206 8.88418 12.8664 8.88418 13.6612C8.88418 14.8038 8.47571 15.6979 7.65877 16.3437C6.84184 16.9895 5.76961 17.3372 4.39103 17.3372C3.52304 17.3372 2.75716 17.2379 1.99128 17.0392C1.2254 16.8405 0.612696 16.6418 0.153169 16.3934V13.8103C1.68492 14.6547 3.01245 15.0521 4.03362 15.0521C4.59526 15.0521 5.00373 14.9528 5.36114 14.7541C5.71855 14.5554 5.87173 14.307 5.87173 14.0089C5.87173 13.8102 5.82067 13.6612 5.6675 13.5122C5.56538 13.3632 5.36114 13.2142 5.10585 13.0651C4.85056 12.9161 4.13574 12.5187 2.85928 11.9226C1.88917 11.4755 1.17434 10.9788 0.714816 10.4323C0.255289 9.88592 0 9.28979 0 8.54466C0 7.50148 0.408465 6.70667 1.2254 6.06089C2.14445 5.51446 3.26774 5.16674 4.59526 5.16674Z" fill="#797979"/>
<path d="M15.624 5.16674C17.411 5.16674 18.7896 5.71316 19.8108 6.80602C20.8319 7.89888 21.3425 9.43882 21.3425 11.3762V11.8232H12.8157C12.9689 12.8664 13.3263 13.6612 14.0411 14.2573C14.7049 14.8037 15.624 15.1018 16.7983 15.1018C17.5642 15.1018 18.279 14.9528 18.9938 14.7044C19.7086 14.456 20.4235 14.0586 21.1383 13.5619V15.8469C19.7086 16.7908 18.0237 17.2875 16.0324 17.2875C14.1433 17.2875 12.6115 16.7411 11.3861 15.5986C10.1607 14.5057 9.59905 13.0155 9.59905 11.1775C9.59905 9.38916 10.1607 7.94855 11.284 6.80602C12.4073 5.66349 13.8369 5.16674 15.624 5.16674ZM18.3811 9.98525C18.279 9.14077 18.0237 8.44532 17.5642 7.99824C17.1047 7.55116 16.492 7.30277 15.7261 7.30277C14.9091 7.30277 14.2964 7.55116 13.7859 7.99824C13.3263 8.44532 12.9689 9.14076 12.8668 10.0349H18.3811V9.98525Z" fill="#797979"/>
<path d="M31.299 5.76285C31.0948 5.61383 30.8905 5.51449 30.7374 5.46481C30.3289 5.26611 29.9204 5.16674 29.5119 5.16674C28.7971 5.16674 28.1844 5.41512 27.5717 5.91187C26.959 6.40863 26.3973 7.25312 25.8357 8.34598H25.7846V5.36546H22.619V17.0392H25.7846V11.7239C25.7846 11.1278 25.9378 10.5317 26.1931 9.98526C26.4484 9.43883 26.8569 8.94208 27.3164 8.59435C27.7759 8.24663 28.2865 8.04791 28.746 8.04791C29.1545 8.04791 29.6651 8.24663 30.2268 8.59435L31.299 5.76285Z" fill="#797979"/>
<path d="M50.7523 5.16674C52.0287 5.16674 53.0499 5.56414 53.8158 6.40863C54.5817 7.25311 54.9901 8.29629 54.9901 9.63752V17.0888H51.8245V9.98525C51.8245 9.24012 51.6203 8.64403 51.2629 8.19695C50.9054 7.74988 50.3949 7.55115 49.7311 7.55115C49.2205 7.55115 48.761 7.7002 48.3525 7.94858C47.9441 8.24663 47.4335 8.6937 46.9229 9.33948V17.1385H43.7573V5.46481H46.9229V7.10409C47.4845 6.45831 48.0972 5.96155 48.7099 5.6635C49.3226 5.36544 50.0375 5.16674 50.7523 5.16674Z" fill="#797979"/>
<path d="M65.8145 2.2854H66.0698V5.41494H72.0436V7.74969H66.0698V13.1643C66.0698 13.7107 66.2229 14.1081 66.5804 14.4559C66.9378 14.8036 67.3462 14.9526 67.9079 14.9526C68.6227 14.9526 69.4907 14.7042 70.4608 14.1578V16.6416C69.3375 17.1383 68.2653 17.3867 67.2441 17.3867C65.8655 17.3867 64.8444 17.039 64.0785 16.2938C63.3126 15.5487 62.9552 14.6049 62.9552 13.363V7.74969H61.066V7.25293L65.8145 2.2854Z" fill="#797979"/>
<path d="M72.8605 5.41479L75.7198 11.7236L78.579 5.41479H82L73.6774 22.9999H70.2565L74.0859 14.9525L69.4396 5.41479H72.8605Z" fill="#797979"/>
<path d="M36.8131 5.16674C38.6002 5.16674 39.9787 5.71316 40.9999 6.80602C42.0211 7.89888 42.5317 9.43882 42.5317 11.3762V11.8232H34.0049C34.1581 12.8664 34.5155 13.6612 35.2303 14.2573C35.9451 14.8534 36.8131 15.1018 37.9875 15.1018C38.7533 15.1018 39.4682 14.9528 40.183 14.7044C40.8978 14.456 41.6126 14.0586 42.3274 13.5619V15.8469C40.8978 16.7908 39.2129 17.2875 37.2216 17.2875C35.3324 17.2875 33.8007 16.7411 32.5753 15.5986C31.3499 14.456 30.7882 13.0155 30.7882 11.1775C30.7882 9.38916 31.3499 7.94855 32.4731 6.80602C33.5964 5.66349 35.0261 5.16674 36.8131 5.16674ZM39.5703 9.98525C39.4682 9.14077 39.2129 8.44532 38.7533 7.99824C38.2938 7.50149 37.6811 7.30277 36.9152 7.30277C36.0983 7.30277 35.4856 7.55116 34.975 7.99824C34.5155 8.44532 34.1581 9.14076 34.0559 10.0349H39.5703V9.98525Z" fill="#797979"/>
<path d="M58.2578 1.21278e-05C58.7684 1.21278e-05 59.1769 0.149038 59.5343 0.496765C59.8917 0.844493 60.0449 1.2419 60.0449 1.73865C60.0449 2.18573 59.8917 2.58313 59.5343 2.98053C59.1769 3.32826 58.7684 3.52695 58.2578 3.52695C57.7983 3.52695 57.3388 3.32826 56.9814 2.98053C56.6239 2.6328 56.4708 2.2354 56.4708 1.73865C56.4708 1.2419 56.675 0.844493 57.0324 0.496765C57.3898 0.149038 57.7983 1.21278e-05 58.2578 1.21278e-05ZM59.8406 5.4146V17.0883H56.675V5.4146H59.8406Z" fill="#797979"/>
</svg>

<svg width="82" height="23" fill="none" xmlns="http://www.w3.org/2000/svg"><path d="M4.595 5.167c.664 0 1.277.05 1.89.198.612.15 1.225.398 1.838.696v2.484a6.858 6.858 0 0 0-1.94-.894 5.208 5.208 0 0 0-1.839-.348c-.46 0-.817.1-1.072.248a.789.789 0 0 0-.408.696c0 .198.102.347.306.546.204.199.817.497 1.787.944 1.378.695 2.349 1.291 2.91 1.887.562.597.817 1.242.817 2.037 0 1.143-.408 2.037-1.225 2.683-.817.645-1.89.993-3.268.993a9.36 9.36 0 0 1-2.4-.298c-.766-.199-1.378-.397-1.838-.646V13.81c1.532.845 2.86 1.242 3.88 1.242.562 0 .97-.1 1.328-.298.358-.199.51-.447.51-.745a.629.629 0 0 0-.204-.497c-.102-.149-.306-.298-.561-.447-.255-.149-.97-.546-2.247-1.142-.97-.447-1.685-.944-2.144-1.49C.255 9.885 0 9.29 0 8.544 0 7.5.408 6.707 1.225 6.06c.92-.547 2.043-.894 3.37-.894zm11.029 0c1.787 0 3.166.546 4.187 1.639 1.02 1.093 1.532 2.633 1.532 4.57v.447h-8.527c.153 1.043.51 1.838 1.225 2.434.664.547 1.583.845 2.757.845.766 0 1.481-.15 2.196-.398.715-.248 1.43-.645 2.144-1.142v2.285c-1.43.944-3.114 1.44-5.106 1.44-1.889 0-3.42-.546-4.646-1.688-1.225-1.093-1.787-2.584-1.787-4.421 0-1.789.562-3.23 1.685-4.372 1.123-1.143 2.553-1.64 4.34-1.64zm2.757 4.818c-.102-.844-.357-1.54-.817-1.987-.46-.447-1.072-.695-1.838-.695-.817 0-1.43.248-1.94.695-.46.447-.817 1.143-.92 2.037h5.515v-.05zm12.918-4.222a2.1 2.1 0 0 0-.562-.298 2.78 2.78 0 0 0-1.225-.298c-.715 0-1.328.248-1.94.745-.613.497-1.175 1.341-1.736 2.434h-.051v-2.98h-3.166v11.673h3.166v-5.315c0-.596.153-1.192.408-1.739a3.808 3.808 0 0 1 1.123-1.39c.46-.348.97-.547 1.43-.547.409 0 .92.199 1.48.546L31.3 5.763zm19.453-.596c1.277 0 2.298.397 3.064 1.242.766.844 1.174 1.887 1.174 3.229v7.45h-3.166V9.986c0-.745-.204-1.341-.561-1.788-.358-.447-.868-.646-1.532-.646-.51 0-.97.15-1.379.398a7.38 7.38 0 0 0-1.43 1.39v7.8h-3.165V5.465h3.166v1.64c.561-.647 1.174-1.143 1.787-1.442.613-.298 1.328-.496 2.042-.496zm15.062-2.882h.256v3.13h5.974V7.75H66.07v5.414c0 .547.153.944.51 1.292.358.348.766.497 1.328.497.715 0 1.583-.249 2.553-.795v2.484c-1.123.496-2.196.745-3.217.745-1.379 0-2.4-.348-3.165-1.093-.766-.745-1.124-1.69-1.124-2.931V7.75h-1.889v-.497l4.748-4.968z" fill="#797979"/><path d="M72.86 5.415l2.86 6.309 2.859-6.31H82L73.677 23h-3.42l3.829-8.047-4.646-9.538h3.42zm-36.047-.248c1.787 0 3.166.546 4.187 1.639 1.021 1.093 1.532 2.633 1.532 4.57v.447h-8.527c.153 1.043.51 1.838 1.225 2.434.715.596 1.583.845 2.758.845.765 0 1.48-.15 2.195-.398.715-.248 1.43-.645 2.144-1.142v2.285c-1.43.944-3.114 1.44-5.105 1.44-1.89 0-3.421-.546-4.647-1.688-1.225-1.143-1.787-2.584-1.787-4.421 0-1.789.562-3.23 1.685-4.372 1.123-1.143 2.553-1.64 4.34-1.64zm2.757 4.818c-.102-.844-.357-1.54-.817-1.987-.46-.497-1.072-.695-1.838-.695-.817 0-1.43.248-1.94.695-.46.447-.817 1.143-.92 2.037h5.515v-.05zM58.258 0c.51 0 .919.149 1.276.497.358.347.51.745.51 1.242 0 .447-.152.844-.51 1.242-.357.347-.766.546-1.276.546-.46 0-.92-.199-1.277-.546-.357-.348-.51-.746-.51-1.242 0-.497.204-.895.561-1.242A1.683 1.683 0 0 1 58.258 0zm1.583 5.415v11.673h-3.166V5.415h3.166z" fill="#797979"/></svg>
